X: 10102
Q: "Quick March"
M: 2/4
L: 1/8
K: D
|:\
vd4- | d>vA F2 | d2 (3ddd | (.d>.B) G2 |\
g2 (f>g) | e2 a2 | (.f>.e)(.d>.c) | e>(AB>c) |
d4- | d>vA F2 | d2 ((3cde) | (.d>.f) a2 |\
(.f>.d) a2 | (.g>.f)(.e>.d) | (.c>.A)(.A>.c) | d4 :|
|:\
!p!ve3 d | (.c>.B)(.A>.g) | f2- (3fge | (d3 f) |\
(g>fg)>vf | e2- (3efd | (.c>.A)(.B>.c) |
(.g>.f)(.e>.A) !f!| (.a>.f) ((3def) !ff!| ("^>".f>.d)("^>".e>.c) | d4 :|


